X: 1
T: Hura hura h\"ait\"a  [C]
M: 2/4
L: 1/8
K: C
[|\
"C"GG GA | G2 E2 | GG GA | GG EE || "G7"F2 DD |
w: Hu-ra, hu-ra h\"ai-t\"a, kel-lo l\"oi jo kak-si-tois-ta, kei-sa-ri
"C"E2 C2 | "G7"DD B,2 | "C"C2 E2 || G2 GA | G2 EE | GG GA |
w: sei-soo pa-lat-sis-saan, niin mus-ta kuin mul-ta, niin val-ke-a kuin
G2 E2 || GG GG | "F"AA AA | "G7"GG GG | "C"E2 E2 ||
w: lun-ta. Mi-t\"a var-ten so-ta-mies on pa-rem-pi kuin her-ra?
"G7"FF DD | "C"EE CC | "G7"DD B,B, | "C"C2 z2 |]
w: Se, ken tu-lee  vii-mei-sek-si, om-pi kuo-le-ma.

%%sep 1 1 500

